X: 3344
M: C
L: 1/8
K: G
(uBc) |\
d>ba>g f>ge>f | d>ec>d B>cA>B |\
d>ba>g f>ge>f | d>ec>d B>cA>B |
a>g |\
f>ge>f d>ec>d | B>cd>e d2a>g |\
f>ge>f d>ec>d | B>cd>e d2d>c |\
g>fg>a b>ag>f |\
e>^de>f a>gf>e | d>^cd>e "_D.C."d2 ::\
(3ddd |\
d2 (3ddd d2 (3ddd | d2(d'd) c'dbd |\
adbd c'dbd |[1 a2(3d'd'd' d'2 :|[2 a6 |]


